X:1
T:fOr Horn, Viola und Violone
T:DIVERTIMENTO
T:DIVERTIMENTO IN D MAJOR, MH 173
T:Johann Michael Haydn (1737 - 1806)
T:Composed circa 1771 for horn in D, viola, and violone (double bass).
T:Based on first print version edited by Werner Rainer
T:Based on first print version edited by Werner Rainer
T:Based on first print version edited by Werner Rainer
T:Based on first print version edited by Werner Rainer
T:Based on first print version edited by Werner Rainer
T:Based on first print version edited by Werner Rainer
T:Based on first print version edited by Werner Rainer
T:Based on first print version edited by Werner Rainer
T:Based on first print version edited by Werner Rainer
T:Based on first print version edited by Werner Rainer
T:Based on first print version edited by Werner Rainer
T:Based on first print version edited by Werner Rainer
T:Based on first print version edited by Werner Rainer
T:Based on first print version edited by Werner Rainer
T:Based on first print version edited by Werner Rainer
T:Based on first print version edited by Werner Rainer
T:Based on first print version edited by Werner Rainer
T:Based on first print version edited by Werner Rainer
T:Based on first print version edited by Werner Rainer
C:Johann Mtchael Haydn
Z:Based on first print version edited by Werner Rainer
%%score 1 ( 2 3 ) 4
L:1/8
Q:1/4=138
M:2/2
K:D
V:1 treble transpose=-7 nm="Horn in F" snm="F Hn."
V:2 alto nm="Viola" snm="Vla."
V:3 alto 
V:4 bass transpose=-12 nm="Contrabass" snm="Cb."
V:1
[K:A]!mf!!mf!"^Allegro moderato" A8- | A8- | A8 | z AA, z z4 | z AA, z z4 | z2!p! A2 A2 A2 | %6
 z2 B2 B2 B2 | z2 E2 E2 E2 | z2 E2 E2 E2 | z2 A2 A2 z2 | z2 B2 B2 B2 |!f! c2 z2 z4 | E2 E,2 z4 | %13
 E2 E,2 z4 | E,4 G,2 E,2 | A,2 z2 z4 | z8 | z8 | z8 |!p! e8 | B8 | E4 z4 | E8- | E8 | z8 | %25
 z2 B2 E2 z2 | E8- | E4- E2 z2 | z8 |!f! B8- | B4 z4 | z EE, z z4 | z4 B4- | B8 | z4 E2 z B | %35
 E z z B E z z B | E2 E2 E2 z2 :: E8- | E8- | E8 | z EE, z z4 | z EE, z z4 |!p! E4 z4 | B8- | %44
 B4 z4 | B4 E4 | E8- | E8 | z8 | z8 | E8- | E8 | (G,4 A,2) z2 | z4!f! E2 E,E | z4 E,2 !fermata!z2 | %55
 z2!p! A2 A2 z2 | z2 A2 B2 z2 | z2 G,2 E,2 G,2 | E,2 G,2 A,2 z2 | z8 | z8 |[K:bass] z4 E,2 E,2 | %62
 A,,2 z2 z4 | z8 | z8 | z4 E,2 E,2 |!f! B,,2 z2 z2 E,2 | A,,2 z2 z2 E,2 | A,2 E2 C2 A,2 | G,4 E,4 | %70
 z2 E2 C2 A,2 | G,4 E,4 | cAA,c dBEB | c/A/E/C/ B,c dB E2 | z8 | z AA z z BB z | z cc z z4 | z8 | %78
 A4 E4 | z8 | A2 z2 E2 z2 | A2 z2 E4 | A2 z2 z AAA | A z z2 z4 | z EEE z EEE | z AA z B z B z | %86
 z AA z B z B z | C2 E2 C2 z2 :|[M:3/4]"^Menuet"[Q:1/4=98] z2!p! A2 A2 | z2 B2 B2 | z2 A2 A2 | %91
 z2 A2 A2 | z E,G,E,G,E, | A,2 z2 z2 | z E,G,E,G,E, | A,2 z2 z2 |[K:bass] D,2 E,2 E,2 | %97
 A,,2[K:treble] z2 z2 ::!p! c6- | c6 | B6- | B6 |!mf! E2 z2 z2 | B2 z2 z2 | E2 z2 z2 | B2 z2 z2 | %106
 E2 A2 B2 | E2 E,2 z2 |!p! (c6 | B2) z2 z2 | (B6 | E2) z2 z2 |!mf! A2 z2 z2 | E6 | A2 z2 z2 | E6 | %116
 A2 z2 E2 | A2 z2 z2 :|[M:3/4]"^Trio" z2!p! c2 c2 | z2 c2 c2 | c2 z2 z2 | z6 | c2 z2 z2 | %123
 c2 z2 z2 |!mf! A,2 z2 z2 | z2 E,2 E,2 | A,2 z2 z2 | z2 E,2 E,2 | A,2 (D,2 E,2) | %129
 A,,2[K:treble] z2 z2 :: (c6 | B2) z2 z2 | (B6 | A2) z2 z2 | c6- | c6 | z6 | z6 | z6 | z6 | z6 | %141
 z6 |!p!!>(! (B2 c2) c2!>)! | c2 z2 z2 |!p!!>(! (B2 c2) c2!>)! |!pp! c2 z2"_Menuet Da Capo" z2 :| %146
[M:3/8][Q:1/4=71]"^Adagio"!p!"_sempre p"[Q:1/8=76] A,CE | AEC | E/E/E/E/E/E/ | E,E,A,, | A,A,A, | %151
 E,E,E, | A,, z z/ E,/ | A,, z z/ E,/ | A,, z z | z3 | E,E,E, | A,2 z | D, z E, | A,A,A, | G,E,G, | %161
 A,A,A, | G,E,G, | A,A,, z | E,E, z | ^D,D, z | E, z z/ G,/ | A, z z | E, z z/ G,/ | A, z z | z3 | %171
 z3 | z3 | z3 | z3 | z3 | z EE | z BB | z EE | z BB | B2- B :: E z B | EE, z | z z B | EE, z | %185
 z z B | E z z | E z z | E/E/E/E/E/E/ | A z z | E/E/E/E/E/E/ | A z z | A,CC | E, z z | EE, z | %195
 EE, z | E,/E,/E,/E,/E,/E,/ | A, z z | D,E,E, | z/ A,/C/E/C/A,/ | G, z z | z/ A,/C/E/C/A,/ | %202
 G, z z | (3A/A,/C/ (3E/A/c/ (3A/E/C/ | (3E,/B/c/ (3d/c/B/ c | (3A/A,/C/ (3E/A/c/ (3A/E/C/ | %206
 (3E,/B/c/ (3d/c/B/ c | A/A/A/A/A/A/ | B/B/B/B/B/B/ | A z z | EEE | A z z | EEE | A z z | %214
[K:bass] z2 E, | A, z z | z2 E, | A, z z | z D,D, | z A,A, | z E,E, | A,E,A,, :| %222
[M:3/4][K:treble transpose=-7]!mf!"^Menuet"[Q:1/4=160] A2 E2 C2 | A,2 z2 z2 | z2 E2 E2 | z2 E2 E2 | %226
 z2 B2 B2 | z2 B2 E2 | A2 z2 B2 | E2 z2 z2 | A2 z2 B2 | E2 z2 z2 :: z6 | z6 | z2 E2 B2 | z2 A2 c2 | %236
 z2 z2 E2 | C2 A,2 z2 | z2 z2 E2 | C2 A,2 z2 | z2 z2 E2 | A,2 z2 z2 :| %242
[M:3/4]"^Trio" (3A,CE (3CEA (3EAc | (3ecA (3cAE (3AEC | (3A,CE (3CEA (3EAc | (3ecA (3cAE (3AEC | %246
 A,6- | A,6- | A,6 | E,2 z2 z2 :: (c6 | B6) | z6 | z6 | (B6 | A6) | E6- | E6 | z6 | z6 | %260
 (3A,CE (3CEA (3EAc | B2 z2 z2 | (3A,CE (3CEA (3EAc | B2 z2 z2 | A2 z2 (B2 | %265
"_Menuet Da Capo" A2) z2 z2 :|[M:2/4]!f![Q:1/4=144]"^Allegro (Presto)"[Q:1/4=160] A4 | E4 | C4 | %269
 A,4 | A,2 A,2 | A,2 A,2 | E,2 G,2 | E,2 G,2 | A,2 z2 | C2 z2 | E,2 G,2 | E,2 G,2 | A,AEC | %279
 A,2 z2 |!p! A,4- | A,4- | A,4- | A,4 | E,2 z2 | z2 B2 | E2 z2 | z2 B2 | E2 z2 | z4 |!f! A4 | z4 | %292
 z BBB | z BBB | E2 z2 | B4 | E2 z2 | B4 | E4- | E4 | E4- | E4 | G,4- | G,4 | A,2 z2 | z4 | z BBB | %307
 BBBB | E4 | B4 | E4 | B4 | E2 z2 | A2 z2 | z4 | z4 | E2 B2 | E2 z2 :: z!p! EE, z | z EE, z | %320
 z EE, z | B4- | B4 | B4- | B2 E2 | E2 z2 | z4 | z4 | z4 | z4 | B4- | B2 z2 | E2 z B | E2 z2 | %334
!f! A4 | E4 | C4 | A,4 | A,2 A,2 | A,2 A,2 | E,2 G,2 | E,2 G,2 | A,2 z2 | z4 | z4 | z4 | A,AEC | %347
 A,2 z2 | z!p! A,CE | AECA, | G,2 z2 | z4 | z A,CE | AECA, | G,2 z2 | z4 |!f! A,2 z2 | z4 | %358
 EE, z2 | z4 | E2 E,2 | z4 | E2 C2 | A,2 z2 | EEEE | EEEE | EEEE | EEEE | A, z E, z | A, z G, z | %370
 A, z E, z | A,2 z2 | z4 | z4 | z4 | z4 | z4 | z4 |!p! E4- | E4 | E4- | E4 | z4 | z4 | z4 | %385
!f! A,2 z2 | z A, A,2 | z A, A,2 | z A, A,2 | z E E2 | z E E2 | E4- | E4 | A,2 z2 | z4 | E4- | E4 | %397
!p! C2 z2 | z4 | E,2 G,2 | E,2 G,2 | A,2 z2 | z4 | E,2 G,2 | E,2 G,2 | A,2 z2 | z4 | z4 | z4 | z4 | %410
 z4 | z4 | z4 | z!f! EEE | z EEE | AEA, z | z4 | z/ A,/C/E/ A z | z4 | z/ A,/C/E/ A z | z4 | %421
 z AA, z | z AA, z | z AA, z | E,2 E,2 | A,2 z2 :| %426
V:2
 z2!f! D2 C2 B,2 | A,2 B,2 A,2 G,2 | F,2 G,2 F,2 E,2 | D,2 z .F .G.A.B.c | d2 z .F .G.A.B.c | %5
!p! (d8 | c8) | (g8 | f8) | A6- Ad | (dc) c6 |!f! d3 .A .G.F.E.D | (A2 A,).A .G.F.E.D | A2 A,2 z4 | %14
 EA,CE AGFE | F2 z2 z4 | FB,^DF BA^GF | ^G2 z2 z4 |!p! E8 | [FB]8 | B8 | AEAE AECA, | (F4 E4) | %23
 (F4 E4) | (B2 d2) (f3 d) | cBA^G AECA, | (F4 E4) | (F4 E3)!f! C | .D.E.F.^G .A.B.c.d | %29
 (e3 c) (d3 B) | (c3 A) Bd/f/ (e/d/c/)B/ | A2 z .C .D.E.F.^G | .A.B.c.d (e3 c) | (d3 B) (c3 A) | %34
 Bd/f/ (e/d/c/)B/ A(fe).G | .A(fe).^G .A(fe).=G | A2 E2 A2 z2 :: z2 A2 ^G2 F2 | E2 F2 E2 D2 | %39
 C2 D2 C2 B,2 | A,2 z .C .D.E.F.^G | A2 z .C .D.E.F.^G |!p! A8 | ^G6 (G/A/B/c/) | [Ed]8 | [Ec]8 | %46
 (F4 E4) | E4- E4 | (B2 d2) (f3 d) | cBA^G AECA, | (F4 E4) | (F4 E4) | (=G4 F3)!f! .F | %53
 .G.F.E.D (A2 C).A | .G.F.E.D"_(Seems correct,\n rather than G)\n" A,2 !fermata!z2 | %55
 z2!p! F2 F2 z2 | z2 F2 G2 z2 | E2 E4 GE | (E4 D2) z2 | z8 | A2 A4 G2 | F2 (EF) AGFE | %62
 F2 (GA) Bcde | f2 z2 z4 | A2 A4 G2 | F2 (EF) AGFE | F2 z2!f! (3FGA (3BGE | %67
 F2 z2 (3F,G,A, (3B,G,E, | D,A,F,A, D,A,F,A, | G,A,G,A, G,A,G,A, | D,A,F,A, D,A,F,A, | %71
 G,A,E,A, G,A,E,A, | A,2 z A, .C z z A, | A,2 z A, C z z .F, | .G,.A,.B,.C .D.E.F.G | %75
 (A3 d) (c3 e) | d3 .F .G.A.B.c | Bcde f2 z2 | D/B/D/B/ D/B/D/B/ E/c/E/c/ E/c/E/c/ | %79
 (d/c/d/)A/ G/F/E/D/ G/F/G/E/ D/C/B,/A,/ | F/A/d/A/ G/A/F/A/ E/A/F/A/ G/A/E/A/ | %81
 F/A/d/A/ G/A/F/A/ E/A/F/A/ G/A/E/A/ | F/D/E/F/ G/A/B/c/ d/c/d/e/ d/A/B/c/ | B^def g2 (d/e/f/g/) | %84
 A4 Te4 | =d2 z d z e z c | d2 z d z e z c | d2 A2 D2 z2 :|[M:3/4]!p! (d6 | c6) | (c6 | A6) | %92
!mf! G4 E2 | F2 z2 z2 | G4 E2 | F2 z2 z2 | z2 A,2 A,2 | D,2 D2 z2 :: z!p! C CCCC | z D DDDD | %100
 z B, B,B,B,B, | z C CCCC |!mf!!mf! (3(A,C)D (3EF^G (3ABc | (3(dB)A (3^GFE (3DCB, | %104
 (3(A,C)D (3EF^G (3ABc | (3(dB)A (3^GFE (3DCB, | (3A,Ac (3Bdf e^G | A2 A,2 z2 |!p! (A4 =c2) | %109
 (G4 B2) | (G4 B2) | (F4 A2) |!mf! F2 z2 z2 | (3(EA)A (3(GA)A (3(EA)A | F2 z2 z2 | %115
 (3(EA)A (3(GA)A (3(EA)A | F2 z2 G2 | F2 z2 z2 :|[M:3/4] z2!p! !tenuto!B,2 !tenuto!B,2 | %119
 z2 !tenuto!^A,2 !tenuto!A,2 | (B2 d2) .d2 | (cdc).^A !tenuto!B2 | (D2 F2) .F2 | %123
 (EFE).C !tenuto!D2 |!mf! F2 z2 z2 | (E2 C2) A,2 | F2 z2 z2 | (E2 C2) A,2 | (A2 B2) G2 | %129
 F2 z2 z2 :: (A6 | (G2) B2) G2 | (G6 | (F2) A2) F2 | B,2 B,2 B,2 | ^A,2 A,2 A,2 | %136
 B,2!>(! z (B,C)D!>)! | z2!p! (E2 C2) | z2 (D2 B,2) | z2 (C2 ^A,2) | z2 (B,2 C2) | D2 z2 z2 | %142
 z!>(! (EDCB,^A,)!>)! | B,2 z2 z2 |!p! z!>(! E(DCB,=A,)!>)! |!pp! B,2 z2 z2 :| %146
[M:3/8]!p!"_sempre p" D,F,A, | DA,F, | A,2 A, | A,2 A, | %150
 [D,B,]/[D,B,]/[D,B,]/[D,B,]/[D,B,]/[D,B,]/ | [E,C]/[E,C]/[E,C]/[E,C]/[E,C]/[E,C]/ | %152
 (D/>F/)(G/A/B/c/) | (d/>=F/)(G/A/B/c/) | (d/>A/)(G/F/E/D/) | A(CD) | %156
 E E/4C/4C/4E/4 (A/4G/4F/4^E/4) | FFF | .G/.B/.A/.G/.F/.E/ | FFF | EGG | FFF | EGG | FFF | EEE | %165
 DDD | E z z | z/ .D/.C/.B,/.A,/.^G,/ | A, z z | z/ .d/.c/.B/.A/.^G/ | %170
 A (C/4E/4)(A/4c/4) (e/4d/4B/4^G/4) | A C/4E/4(A/4c/4) (e/4d/4B/4^G/4) | (A3 | %173
 .^G/).f/.e/.d/.c/.B/ | (A3 | .^G/).f/.e/.d/.c/.B/ | (AE).C | E3 | (AE).C | E3 | E2- E :: A,CE | %182
 A z/ c/4B/4A/4^G/4F/4E/4 | (DB,)E | A, z/ c/4B/4A/4^G/4F/4E/4 | (DB,)E | A,CA, | c/c/c/c/c/c/ | %188
 c/c/c/c/c/c/ | d/4D/4(E/4F/4) (G/4A/4B/4c/4)d | c/c/c/c/c/c/ | d/4(F/4G/4A/4) (B/4c/4d/4e/4)f | %192
 z/ .B/.A/.G/.F/.E/ | (F/>A/)(G/F/E/D/) | (A A,/)(F/E/D/) | A(CD) | %196
 E- (E/4A,/4)(C/4E/4) (A/4G/4F/4^E/4) | FFF | G/.B/.A/.G/.F/.E/ | F z z | E,/ z/ E,/ z/ A,/ z/ | %201
 D, z z | E,/ z/ E,/ z/ A,/ z/ | A z z | G x D | F z z | (3A,/C/D/ (3E/D/C/ D | B3 | c3 | %209
 (d/4A/4B/4c/4) (d/4e/4f/4g/4)a | ECE | (d/4A/4B/4c/4) (d/4e/4f/4g/4)a | ECE | d3 | %214
 .c/.B/.A/.G/.F/.E/ | d3 | .c/.B/.A/.G/.F/.E/ | (DA,).F, | A,2- A, | (DA,).F, | A,2- A, | %221
 A,2- A, :|[M:3/4]!mf! d2 A2 F2 | D2 C2 F,2 | A,2 A,2 A,2 | A,2 A,2 A,2 | E6 | c4 (e/c/A/E/) | %228
 F2 z2 (^G2 | A2) z2 (e/c/A/E/) | F2 z2 (^G2 | A2) z2 z2 :: (A2 B2 c2) | (d2 e2 f2) | (g4 e2) | %235
 (f4 d2) | e2 z2 (c2 | d2) z2 (A/F/D/A,/) | B,2 z2 (C2 | D2) z2 (A/F/D/A,/) | B,2 z2 (C2 | %241
 D2) z2 z2 :|[M:3/4] F, z A, z D z | F z z2 z2 | F, z A, z D z | F z z2 z2 | F2 (3DEF (3dBA | %247
 ^G2 (3EFG (3edc | (3Bdf A2 T^G2 |{^G} A4 z2 :: B,6- | B,6 | (F6 | E6) | (G6 | F6) | (A,6 | A,6) | %258
 E3 G/B/ (A/G/F/E/) | (D4 C2) | D2 z2 z2 | (G6 | F2) z2 z2 | (G6 | F2) z2 (G2 | F2) z2 z2 :| %266
[M:2/4]!f! d4 | A4 | F4 | D4 | (B/A/B/c/) d2 | (B/A/B/c/) d2 | g2 e2 | c2 z2 | FdAf | dafd | %276
 g2 e2 | c3 G | FDA,F, | D,2 z2 |!p! A,/F/A,/F/ A,/F/A,/F/ | A,/F/A,/F/ A,/F/A,/F/ | %282
 B,/^G/B,/G/ B,/G/B,/G/ | B,/^G/B,/G/ B,/G/B,/G/ | A/(E/F/^G/) (A/B/c/d/) | %285
 (e/c/B/A/) (d/B/A/=G/) | A/(E/F/^G/) (A/B/c/d/) | (e/c/B/A/) (d/B/A/^G/) | %288
!f! A/(E/F/^G/) (A/B/c/d/) |[K:treble] e2 ^e2 | f4 | ^g2 a2 |[K:alto] E4 | TB4 | A2 z2 | %295
 (3cBA (3^GAB | A2 (AB) | (3cBA (3^GAB | A4- | A4 | A4- | A4 | G4- | G4 | AAAA | E2 E2 | z EEE | %307
 E,E,E,E, | A,2 C2 | B,2 E,2 | A,2 C2 | B,2 E,2 | A(c/B/) A/^G/F/^E/ | F(f/=e/) d/c/B/A/ | E4 | %315
 TB4 | A2 E2 | A,2 z2 ::!p! A4 | c4 | e4 | (dc)(BA) | (A^G) G2 | (Bc)dd | (dc) c2 | z Ace | %326
 (dc)(BA) | (^GF)(ED) | CAEc | AecA | (dc)(BA) | (^GF)(ED) | CAEC | A,2 z2 |!f! D,A,F,A, | %335
 D,A,F,A, | D,A,F,A, | D,A,F,A, | GG F2 | GG F2 | E(AGA) | EAGA | D2 F2 | A2 d2 | E2 C2 | A,2 C2 | %346
 DdAF | D2 z2 |!p! A,/F/A,/F/ A,/F/A,/F/ | A,/F/A,/F/ A,/F/A,/F/ | A,/G/A,/G/ A,/G/A,/G/ | %351
 A,/G/A,/G/ A,/G/A,/G/ | A,/F/A,/F/ A,/F/A,/F/ | A,/F/A,/F/ A,/F/A,/F/ | A,/G/A,/G/ A,/G/A,/G/ | %355
 A,/G/A,/G/ A,/G/A,/G/ |!f! F/(D/E/F/) (G/A/B/c/) | (d/c/B/A/) (G/F/E/D/) | AA, c/A/e/c/ | %359
 (d/c/B/A/) (G/F/E/D/) | A2 A,2 | z4 | A2 F2 | D2 z2 | z D, C,2 | D,2 C,2 | z D, C,2 | D,2 C,2 | %368
 Fdce | dFGE | DFGE | F2 z2 | z4 | z4 |!p! Fd z c | d z c z | Fd z c | d z c z | Fd z c | d z c z | %380
 Fd z c | d z c z | dF TG2 | FDEC | DFGE |!f! F/(D/E/F/) (G/A/B/c/) | d3 f/e/ | d3 f/e/ | d2 ^d2 | %389
 e3 g/f/ | e3 g/f/ | ecAG | ECA,C | DAFd | Af dg/f/ | ecAG | ECA,C |!p! D,/A,/F,/A,/ D,/A,/F,/A,/ | %398
 D,/A,/F,/A,/ D,/A,/F,/A,/ | G,/A,/G,/A,/ E,/A,/E,/A,/ | G,/A,/G,/A,/ E,/A,/E,/A,/ | %401
 D,/A,/F,/A,/ D,/A,/F,/A,/ | D,/A,/F,/A,/ D,/A,/F,/A,/ | G,/A,/G,/A,/ E,/A,/E,/A,/ | %404
 G,/A,/G,/A,/ E,/A,/E,/A,/ | F,/A,/D/F/ A/F/D/A,/ | G,/B,/D/G/ B!f!F | GABc | defg |[K:treble] a4 | %410
 a2 ^a2 | b4 | c'2 d'2 |[K:alto] A4 | Te4 | dA z F | G z E z | F2 z F | G z E z | F2 z F | GABc | %421
 d3 e/A/ | d3 e/A/ | d2 z d | e2 c2 | d2 z2 :| %426
V:3
 x8 | x8 | x8 | x8 | x8 | x8 | x8 | x8 | x8 | x8 | x8 | x8 | x8 | x8 | x8 | x8 | x8 | x8 | x8 | %19
 x8 | ^G8 | x8 | A,4- A,4 | A,4- A,4 | x8 | x8 | A,4- A,4 | A,4 z4 | x8 | x8 | x8 | x8 | x8 | x8 | %34
 x8 | x8 | x8 :: x8 | x8 | x8 | x8 | x8 | x8 | x8 | x8 | x8 | A,4- A,4 | A,4- A,4 | x8 | x8 | %50
 A,4- A,4 | A,4- A,4 | A,4- A,2 x2 | x8 | x8 | x2 A,2 A,2 x2 | x2 A,2 A,2 x2 | x8 | x8 | x8 | x8 | %61
 x8 | x8 | x8 | x8 | x8 | x8 | x8 | x8 | x8 | x8 | x8 | x8 | x8 | x8 | x8 | x8 | x8 | x8 | x8 | %80
 x8 | x8 | x8 | x8 | x8 | x8 | x8 | x8 :|[M:3/4] x6 | x6 | x6 | x6 | A,4 A,2 | A,2 x4 | A,4 A,2 | %95
 A,2 x4 | x6 | x6 :: x6 | x6 | x6 | x6 | x6 | x6 | x6 | x6 | x6 | x6 | x6 | x6 | x6 | x6 | x6 | %113
 x6 | x6 | x6 | x6 | x6 :|[M:3/4] x6 | x6 | x6 | x6 | x6 | x6 | A,2 x4 | x6 | A,2 x4 | x6 | x6 | %129
 x6 :: x6 | x6 | x6 | x6 | x6 | x6 | x6 | x6 | x6 | x6 | x6 | x6 | x6 | x6 | x6 | x6 :|[M:3/8] x3 | %147
 x3 | G,2 F, | E,2 D, | x3 | x3 | x3 | x3 | x3 | x3 | x3 | x3 | x3 | A,A,A, | A,A,A, | A,A,A, | %162
 A,A,A, | A, z z | A, z z | x3 | A, x2 | x3 | x3 | x3 | x3 | x3 | x3 | x3 | x3 | x3 | x3 | %177
 (D2 B,) | x3 | (D2 B,) | (B,2 C) :: x3 | x3 | x3 | x3 | x3 | x3 | E/E/E/E/E/E/ | E/E/E/E/E/E/ | %189
 x3 | E/E/E/E/E/E/ | x3 | x3 | x3 | x3 | x3 | x3 | x3 | x3 | x3 | x3 | x3 | x3 | A, x2 | %204
 A, (3E/D/C/ x | A, x2 | x3 | D3 | E3 | x3 | x3 | x3 | x3 | x3 | x3 | x3 | x3 | x3 | (G,2 E,) | %219
 x3 | (G,2 E,) | (E,2 F,) :|[M:3/4] x6 | x6 | G,2 G,2 G,2 | F,2 F,2 F,2 | e6 | x6 | x6 | x6 | x6 | %231
 x6 :: x6 | x6 | x6 | x6 | x6 | x6 | x6 | x6 | x6 | x6 :|[M:3/4] x6 | x6 | x6 | x6 | x6 | x6 | x6 | %249
 x6 :: (A6 | =G6) | B,6- | B,6 | A,6- | A,6 | (E6 | D6) | x6 | x6 | F,2 x4 | A,6- | A,2 x4 | A,6- | %264
 A,2 x2 A,2- | A,2 x4 :|[M:2/4] x4 | x4 | x4 | x4 | x4 | x4 | x4 | x4 | x4 | x4 | x4 | x4 | x4 | %279
 x4 | x4 | x4 | x4 | x4 | x4 | x4 | x4 | x4 | x4 |[K:treble] x4 | x4 | x4 |[K:alto] x4 | x4 | x4 | %295
 x4 | x4 | x4 | E4- | E4 | F4- | F4 | A,4- | A,4 | DDDD | ^G,2 A,2 | x4 | x4 | x4 | x4 | x4 | x4 | %312
 x4 | x4 | x4 | x4 | x4 | x4 :: x4 | x4 | x4 | x4 | x4 | x4 | x4 | x4 | x4 | x4 | x4 | x4 | x4 | %331
 x4 | x4 | x4 | x4 | x4 | x4 | x4 | x4 | x4 | x4 | x4 | x4 | x4 | x4 | x4 | x4 | x4 | x4 | x4 | %350
 x4 | x4 | x4 | x4 | x4 | x4 | x4 | x4 | x4 | x4 | x4 | x4 | x4 | x4 | x4 | x4 | x4 | x4 | x4 | %369
 x4 | x4 | x4 | x4 | x4 | x4 | x4 | x4 | x4 | x4 | x4 | x4 | x4 | x4 | x4 | x4 | x4 | x4 | x4 | %388
 x4 | x4 | x4 | x4 | x4 | x4 | x4 | x4 | x4 | x4 | x4 | x4 | x4 | x4 | x4 | x4 | x4 | x4 | x4 | %407
 x4 | x4 |[K:treble] x4 | x4 | x4 | x4 |[K:alto] x4 | x4 | x4 | x4 | x4 | x4 | x4 | x4 | x4 | x4 | %423
 x4 | x4 | x4 :| %426
V:4
 z8 | z2!f! D2 C2 B,2 | A,2 B,2 A,2 G,2 | F,2 z .D, .E,.F,.G,.E, | F,2 z .D, .E,.F,.G,.E, | %5
!p! F,2 F,2 F,2 F,2 | z2 G,2 G,2 G,2 | z2 C,2 C,2 C,2 | z2 D,2 D,2 D,2 | z2 F,2 F,2 z2 | %10
 z2 G,2 G,2 G,2 |!f! D,3 .A, .G,.F,.E,.D, | (A,2 A,,).A, .G,.F,.E,.D, | A,2 A,,2 z4 | z8 | %15
 (3D,F,G, (3A,B,C DA,F,D, | B,,4 ^D,2 B,,2 | (3E,^G,A, (3B,C^D EB,^G,B, |!p! E,E,E,E, E,E,E,E, | %19
 ^D,D,D,D, D,D,D,D, | =D,D,D,D, D,D,D,D, | C,C,C,C, C,E,C,A,, | D,D,D,D, C,C,C,C, | %23
 D,D,D,D, C,C,C,C, | D,D,D,D, D,D, D,F, | E,D,C,B,, A,,2 z2 | D,D,D,D, C,C,C,C, | %27
 D,D,D,D, C,C,C, z | z8 | z!f! CA, z z B,^G, z | z A,A,, z D,2 E,2 | z A,A,, z z4 | z4 z CA, z | %33
 z B,^G, z z A,A,, z | D,2 E,2 A,,2 z E, | A,, z z E, A,, z z E, | A,2 E,2 A,,2 z2 :: z8 | %38
 z2 A,2 ^G,2 F,2 | E,2 F,2 E,2 D,2 | C,2 z .A, .B,.C.D.B, | C2 z .A, .B,.C.D.B, | %42
 z2!p! A,,2 C,2 ^D,2 | E,2 B,,2 E,,2 z2 | z2 E,2 F,2 ^G,2 | A,E,A,E, A,E,C,A,, | %46
 D,A,,D,A,, C,A,,C,A,, | D,A,,D,A,, C,A,,C,A,, | D,D,D,D, D,D, D,F, | E,2 E,,2 A,E,C,A,, | %50
 D,A,,D,A,, C,A,,C,A,, | D,A,,D,A,, C,A,,C,A,, | E,C,E,C, D,A,,D,.F, | %53
 .=G,.F,.E,.D, (A,2 A,,)!f!.A, | .G,.F,.E,.D, A,,2 !fermata!z2 |[K:tenor]!p! D2 D4 FD | %56
 (D4 C)A,/B,/ C/D/E/F/ | G2 G4 BG | (G4 F)DFG | A2 A4 G2 | F2 F4 E2 | D2 (CD) FEDC | %62
 D(A,B,C) DEFG | A2 A4 G2 | F2 F4 E2 | D2 (CD) FEDC |!f! (3DF,G, (3A,B,C (3DEF (3GEC | %67
 (3DF,G, (3A,B,C (3DEF (3GEC |[K:bass] D2 z2 z4 | z2 G,2 E,2 C,2 | D,2 z2 z4 | z2 G,2 E,2 C,2 | %72
 D,2 z D, E, z z C, | D,2 z D, E, z z .D, | .E,.F,.G,.E, F,2 z2 | z F,F, z z G,G, z | %76
 z A,D,.D, .E,.F,.G,.E, | F,2 z2 z F,D,F, | G,G,G,G, G,G,G,G, | F,2 z2 z2 E,2 | D,F,E,D, C,D,E,C, | %81
 D,F,E,D, C,D,E,C, | D,2 z2 F,F,F,F, | G,G, G,2 z4 | z A,A,A, z A,,A,,A,, | z D,F, z G, z A,, z | %86
 z D,F, z G, z A,, z | D,2 A,,2 D,,2 z2 :|[M:3/4] z2!p! F,2 F,2 | z2 G,2 G,2 | z2 G,2 G,2 | %91
 z2 F,2 F,2 |!mf! E,2 z2 C,2 | (3(D,F,)G, (3A,B,C (3DEF | E2 z2 C,2 | (3(D,F,)G, (3A,B,C (3DEF | %96
 (EG,)(F,D)(E,C) | D2 D,2 z2 :: z!p! ^A,, A,,A,,A,,A,, | z B,, B,,B,,B,,B,, | z ^G, G,G,G,G, | %101
 z A, A,A,A,A, |!mf! A,2 z2 z2 | (^G,2 E,2) .G,2 | A,2 z2 z2 | (^G,2 E,2) .G,2 | A,,2 (D,2 E,2) | %107
 A,2 A,,2 z2 | z!p! .^D, D,D,D,D, | E,B,,E,B,,E,B,, | z C, C,C,C,C, | D,A,,D,A,,D,A,, | %112
!mf! (3(D,F,)G, (3A,B,C (3DEF | (G2 E2) .C2 | (3(D,F,)G, (3A,B,C (3DEF | (G2 E2) .C2 | %116
 (DF,)(G,E)(E,C) | D2 D,2 z2 :|[M:3/4]!p! (B,4 D2) | (D4 E2) | (D2 F2) .F2 | (EFE).C !tenuto!D2 | %122
 (B,2 D2) .D2 | (CDC).^A, !tenuto!B,2 |!mf! (3.D(F,G,) (3(A,B,C) (3(DEF) | %125
 (3(GE).A, (3(GE).A, (3(FD).A, | (3.D(F,G,) (3(A,B,C) (3(DEF) | (3(GE).A, (3(GE).A, (3(FD).A, | %128
 (F,D)(G,E)E,C | D2 D,2 z2 :: (3(^DF).E (3.D(B,C) (3(DEF) | (EB,)(GB,)(EB,) | %132
 (3(CE).=D (3.C(A,B,) (3(CDE) | (DA,)FA,DA, | (3.B,(DC) (3B,F,B, (3(DCB,) | %135
 (3.C(ED) (3CF,C (3(ED)C | (DB,)!>(!(C!>)!DEF) |!p! (G4 E2) | (F4 D2) | (E4 C2) | (D4 ^A,2) | %141
!<(! (3(B,C).D (3(EF).G F2!<)! |!mp! z!>(! (GFEDC)!>)! |!<(! (3(B,C).D (3(EF).G F2!<)! | %144
!mp! z!>(! (GFEDC)!>)! |!pp! B,2 B,,2 z2 :|[M:3/8]!p!"_sempre p" D,F,A, | DA,F, | %148
 C,/C,/C,/C,/ D,/D,/ | G,/G,/G,/G,/ F,/F,/ | G,/G,/G,/G,/G,/G,/ | G,/G,/G,/G,/G,/G,/ | %152
 (F,/>D,/)(E,/F,/G,/E,/) | (F,/>D,/)(E,/F,/G,/E,/) | (F,/>A,/)(G,/F,/E,/D,/) | A,(A,,B,,) | %156
 D,C,C, | D, z/4 (D,/4F,/4A,/4) (D/4=C/4B,/4^A,/4) | .B,/.G/.F/.E/.D/.C/ | D>(A,D/F/) | %160
 G(E/C/)(A,/C/) | D>(A,D/F/) | G(E/C/)(A,/C/) | (D3/2F/4)E/4 (D/4^A,/4)(B,/4F/4) | %164
 (C3/2E/4)D/4 (C/4^G,/4)(A,/4E/4) | (B,3/2D/4C/4) (B,/4F,/4)(^G,/4D/4) | %166
 (C/4A,/4B,/4C/4) (D/4E/4F/4^G/4)A | z/ .F/.E/.D/.C/.B,/ | (C/4A,/4B,/4C/4) (D/4E/4F/4^G/4)A | %169
 z/ .F/.E/.D/.C/.B,/ | CA, z | C,A,, z | z/ (C,/D,/)(E,/F,/)(^D,/ | .E,/).=D/.C/.B,/.A,/.^G,/ | %174
 z/ (C,/D,/)(E,/F,/)(^D,/ | .E,/).=D/.C/.B,/.A,/.^G,/ | z C,A,, | z B,^G, | z C,A,, | z B,^G, | %180
 (^G,2 A,) :: A,,C,E, | A,A,, z | (D,B,,)E, | A,,A, z | (D,B,,)E, | A,,/A,/ A,/A,/A,/A,/ | %187
 A,,/A,/ A,/A,/A,/A,/ | =G,/G,/G,/G,/G,/G,/ | (F,/G,/4A,/4) (B,/4C/4D/4E/4) (F/4D/4)(A,/4F,/4) | %190
 G,/G,/G,/G,/G,/G,/ | (F,/4A,/4B,/4C/4) (D/4E/4F/4G/4)A | z/ .G/.F/.E/.D/.C/ | %193
 (D/>A,/)(G,/F,/E,/D,/) | (A, A,,/)(F,/E,/D,/) | A,(A,,B,,) | C,C,C, | %197
 D, z/4 (D,/4F,/4A,/4) (D/4C/4B,/4^A,/4) | B,/.G/.F/.E/.D/.C/ | D z z | z/ G/ z/ E/ z/ C/ | D z z | %202
 z/ G/ z/ E/ z/ C/ | D z z | CA,D | D z z | CA,D | z/ G,/ G,/G,/G,/G,/ | z/ G,/ G,/G,/G,/G,/ | %209
 F, z z3/4 F/4 | (G/4F/4E/4F/4) (E/4D/4C/4D/4) (C/4B,/4A,/4G,/4) | F, z z3/4 F/4 | %212
 (G/4F/4E/4F/4) (E/4D/4C/4D/4) (C/4B,/4A,/4G,/4) | F,/.F,/.G,/.A,/.B,/.^G,/ | %214
 .A,/.=G,/.F,/.E,/.D,/.C,/ | z/ .F,/.G,/.A,/.B,/.^G,/ | .A,/.=G,/.F,/.E,/.D,/.C,/ | z F,D, | %218
 z E,C, | z F,D, | z E,C, | (D,A,,).D,, :|[M:3/4]!mf! D2 A,2 F,2 | D,2 z2 z2 | z2 C,2 C,2 | %225
 z2 D,2 D,2 | z2 B,2 ^G,2 | A,2 (A,,2 C,2) | (D,2 B,,2) E,2 | (C,2 A,,2) C,2 | (D,2 B,,2) E,2 | %231
 A,,2 A,2 z2 :: (A,2 ^G,2 =G,2) | (F,2 C,2) D,2 | z2 E,2 C,2 | (D,2 F,2) B,2 | (G,2 E,2) A,2 | %237
 D,2 D2 z2 | (G,2 E,2) A,2 | (F,2 D,2) F,2 | (G,2 E,2) A,2 | D,2 z2 z2 :|[M:3/4] D, z F, z A, z | %243
 D z z2 z2 | D, z F, z A, z | D z z2 z2 | F,2 z2 F,2 | E,2 z2 ^G,2 | z2 E,2 E,2 | A,,2 A,2 z2 :: %250
 ^D,D,D,D,D,D, | E,E,E,E,E,E, | A,A,A,A,A,A, | G,G,G,G,G,G, | C,C,C,C,C,C, | D,D,D,D,D,D, | %256
 G,G,G,G,G,G, | F,F,F,F,F,F, | G,G,G,G,G,^G, | A,A,,C,E, (A,/=G,/F,/E,/) | D,2 z2 z2 | %261
 z C,E,C,E,C, | D,2 z2 z2 | z C,E,C,E,C, | D,2 z2 A,,2 | D,2 z2 z2 :|[M:2/4]!f! D,D,D,D, | %267
 D,D,D,D, | D,D,D,D, | D,D,D,D, | G,2 F,2 | G,2 F,2 | E,C,A,,C, | A,G,E,A,, | D,2 F,2 | A,2 D2 | %276
 E,C,A,,C, | A,G,E,A,, | D,F,A,D | D,2 z2 |!p! D,D,D,D, | D,D,D,D, | D,D,D,D, | D,D,D,D, | %284
 A,,2 z2 | z2 E,2 | A,,2 z2 | z2 E,2 | A,,2 z2 | z!f! C,C,C, | D,D,D,D, | D,2 z2 | E,E,E,E, | %293
 E,E,E,E, | A,E,A,C | (3EDC (3B,CD | CA,(CD) | (3EDC (3B,CD | CA,CE | CA,EC | DA,DF | DA,F^D | %302
 EA,EG | EA,GE | F4 | ^G2 A2 | E,4 | TB,4 | A,C z E | z D z ^G, | z C z E | z D z ^G, | A,2 z2 | %313
 D,2 z2 | z E,E,E, | z E,,E,,E,, | A,2 E,2 | A,,2 z2 ::!p! A,A,A,A, | A,A,A,A, | A,A,A,A, | %321
 (^G,A,)(G,F,) | E,B,,E,B,, | E,^G,B,G, | A,E,A,E, | A,A,A,A, | B,2 ^G,2 | E,2 ^G,2 | A,,2 C,2 | %329
 F,2 A,2 | B,2 ^G,2 | E,2 ^G,2 | A,CA,E, | A,,2 z2 |!f! D4 | A,4 | F,4 | D,4 | (B,C) D2 | %339
 (B,C) D2 | G2 E2 | C3 G, | (F,D)(A,F) | (DA)(FD) | (GF)(ED) | (CB,)(A,G,) | F,DA,F, | D,2 z2 | %348
!p! D,2 z2 | z4 | z A,CA, | ECA,C | D2 z2 | z4 | z!f! A,CA, | ECA,C | D2 z2 | z4 | A,A,, z2 | z4 | %360
 A,2 A,,2 | z4 | A,2 F,2 | D,2 A,,2 | D,F,E,G, | F,D,E,A,, | D,F,E,G, | F,D,E,A, | DFEG | FDEG, | %370
 F,DE,C | D2 z2 |[K:tenor] A2 F2 | D3!p! A, | DFEA | FDEA, | DFEA | FDEA, | DFEA | FAEA | DFEA | %381
 FAEA | FD TE2 | DF G2 | FD TE2 | D2 z2 |[K:bass] z!f! F, F,2 | z F, F,2 | z F, F,2 | z G, G,2 | %390
 z G, G,2 | G,2 C2 | G,2 E,2 | F,2 D,2 | F,2 A,2 | G,2 C2 | G,2 E,2 | D,2 z2 | z4 |!p! C,2 E,2 | %400
 C,2 E,2 | D,2 z2 | z4 | C,2 E,2 | C,2 E,2 | D,2 z F, | G,2 z!f! D, | E,F,G,E, | F,2 z2 | %409
 z F,F,F, | F,F,F,F, | G,G,G,G, | G,2 z2 | z A,A,A, | z A,,A,,A,, | D,F,/A,/ D2 | z E z C | %417
 D2 z D | z E z C | D2 z D, | E,F,G,E, | F,2 z G, | F,2 z G, | F,2 z F, | G,2 E,2 | D,2 z2 :| %426

